src/24/actions/draw-freehand.svg

<svg xmlns="http://www.w3.org/2000/svg" viewBox="0 0 24 24">
  <defs id="defs3051">
    <style type="text/css" id="current-color-scheme">
      .ColorScheme-Text {
        color:#5d656b;
      }
      </style>
  </defs>
 <path style="fill:currentColor;fill-opacity:1;stroke:none" 
     d="M 13.001953 4 L 5.6582031 11.3125 L 4.2519531 12.75 L 4.0019531 13 L 4.0019531 17 L 5.0019531 17 L 7.0019531 17 L 8.0019531 17 L 8.2519531 16.75 L 8.6269531 16.40625 L 9.3144531 15.6875 L 9.6894531 15.34375 L 16 9 L 17 8 L 13.001953 4 z M 12.408203 6 L 15 8.59375 L 10.720703 12.84375 L 8.1582031 10.25 L 12.408203 6 z M 7.4394531 10.96875 L 10.033203 13.5625 L 9.3144531 14.28125 L 6.7207031 11.6875 L 7.0019531 11.40625 L 7.4394531 10.96875 z M 6.0332031 12.375 L 8.6269531 14.96875 L 7.9082031 15.6875 L 5.3144531 13.09375 L 6.0332031 12.375 z M 17.498047 15 C 17.236387 15.0001 16.543567 15.046 15.435547 15.5625 C 15.089167 15.7241 14.80184 15.907 14.40625 16.125 C 14.19507 16.2414 13.43802 16.6193 13.15625 16.75 C 12.33058 17.1332 12.0562 17.2299 11.34375 17.5 C 10.65424 17.7615 9.9106 17.9987 9.40625 18.1875 C 7.28335 18.9823 4 19 4 19 L 4 20 C 4 20 7.32741 20.032 9.75 19.125 C 10.07135 19.0047 10.63148 18.8074 11.15625 18.625 C 11.96327 18.33064 12.83545 17.96826 13.5625 17.65625 C 13.86715 17.51485 14.573417 17.1652 14.873047 17 C 15.313257 16.7574 15.606857 16.57825 15.841797 16.46875 C 16.355167 16.16635 16.925197 15.9864 17.498047 16 C 17.453247 16.0002 17.671837 16.001 17.873047 16.09375 C 18.074257 16.17775 18.297827 16.32735 18.466797 16.46875 C 18.794117 16.80065 18.931417 17.0539 18.998047 17.5 C 18.972347 18.182 18.737407 18.39575 18.248047 18.78125 C 17.924207 18.99579 17.46827 19.034846 17 19.003906 L 17 19.972656 C 17.78372 19.974656 18.411047 19.81831 18.779297 19.625 C 19.616007 19.1478 20.027267 18.28855 19.998047 17.46875 C 19.993047 17.18085 19.920827 16.9437 19.779297 16.625 C 19.637717 16.3064 19.435267 15.9489 19.123047 15.6875 C 18.641187 15.2643 18.399387 15.0781 17.498047 15 z "
     class="ColorScheme-Text"
     />
</svg>

<svg xmlns="http://www.w3.org/2000/svg" viewBox="0 0 24 24"><path d="M13.002 4l-7.344 7.313-1.406 1.437-.25.25v4h4l.25-.25.375-.344.687-.718.375-.344L16 9l1-1-3.998-4zm-.594 2L15 8.594l-4.28 4.25-2.562-2.594L12.408 6zM7.44 10.969l2.594 2.594-.719.718-2.593-2.594.281-.28.437-.438zm-1.406 1.406l2.594 2.594-.719.719-2.594-2.594.72-.719zM17.498 15c-.262 0-.954.046-2.062.563-.347.161-.634.344-1.03.562-.21.116-.968.494-1.25.625-.825.383-1.1.48-1.812.75-.69.262-1.433.499-1.938.688C7.283 18.982 4 19 4 19v1s3.327.032 5.75-.875c.321-.12.881-.318 1.406-.5.807-.294 1.68-.657 2.406-.969.305-.141 1.011-.49 1.311-.656.44-.243.734-.422.969-.531.513-.303 1.083-.483 1.656-.469-.045 0 .174.001.375.094.201.084.425.233.594.375.327.332.464.585.531 1.031-.026.682-.26.896-.75 1.281-.324.215-.78.254-1.248.223v.969c.784.002 1.411-.155 1.78-.348a2.387 2.387 0 0 0 1.218-2.156c-.005-.288-.077-.525-.219-.844-.141-.319-.344-.676-.656-.938-.482-.423-.724-.609-1.625-.687z" fill="currentColor" color="#5d656b"/></svg>
